build/images/icons/advantages-3.svg

<svg width="40" height="40" viewBox="0 0 40 40" fill="none" xmlns="http://www.w3.org/2000/svg">
<path d="M15.3125 8.04688C15.7437 8.04688 16.0938 7.69684 16.0938 7.26562C16.0938 6.83441 15.7437 6.48438 15.3125 6.48438C14.8813 6.48438 14.5312 6.83441 14.5312 7.26562C14.5312 7.69684 14.8813 8.04688 15.3125 8.04688Z" fill="#EAC57E"/>
<path d="M18.4375 8.04688H24.6875C25.119 8.04688 25.4688 7.69714 25.4688 7.26562C25.4688 6.83411 25.119 6.48438 24.6875 6.48438H18.4375C18.006 6.48438 17.6562 6.83411 17.6562 7.26562C17.6562 7.69714 18.006 8.04688 18.4375 8.04688Z" fill="#EAC57E"/>
<path d="M20 28.8281C20.4315 28.8281 20.7812 28.4784 20.7812 28.0469V26.25C20.7812 25.8185 20.4315 25.4688 20 25.4688C19.5685 25.4688 19.2188 25.8185 19.2188 26.25V28.0469C19.2188 28.4784 19.5685 28.8281 20 28.8281Z" fill="#EAC57E"/>
<path d="M16.0941 21.4697C14.9234 22.2992 13.32 23.4351 12.0438 25.6195C10.6378 28.0258 9.91852 31.1685 9.84985 35.2106C8.93738 35.5313 8.28125 36.4011 8.28125 37.4219V39.2188C8.28125 39.6503 8.63098 40 9.0625 40H30.9375C31.369 40 31.7188 39.6503 31.7188 39.2188V37.4219C31.7188 36.4011 31.0626 35.5313 30.1505 35.2106C30.0815 31.1685 29.3622 28.0258 27.9562 25.6195C26.68 23.4351 25.0766 22.2992 23.9059 21.4697C22.851 20.722 22.3438 20.3375 22.3438 19.7656C22.3438 18.215 26.7719 17.9391 28.9313 12.2296C29.689 10.2292 30.098 7.72827 30.1501 4.78943C31.0626 4.46869 31.7188 3.59894 31.7188 2.57812V0.78125C31.7188 0.349731 31.369 0 30.9375 0H9.0625C8.63098 0 8.28125 0.349731 8.28125 0.78125V2.57812C8.28125 3.59894 8.93738 4.46869 9.84985 4.78943C9.90204 7.72827 10.311 10.2292 11.0684 12.2296C13.2272 17.9373 17.6562 18.2175 17.6562 19.7656C17.6562 20.3375 17.149 20.722 16.0941 21.4697ZM30.1562 38.4375H9.84375V37.4219C9.84375 36.991 10.1941 36.6406 10.625 36.6406H29.375C29.8059 36.6406 30.1562 36.991 30.1562 37.4219V38.4375ZM15.3287 35.0781C16.6837 33.6661 17.6489 31.9528 19.9643 31.9528C19.9744 31.9528 19.9847 31.9531 19.9948 31.9531C22.3792 31.9687 23.3145 33.6713 24.6445 35.0781H15.3287ZM12.4017 11.3211C11.8024 9.58344 11.4722 7.43439 11.416 4.92096H28.584C28.5312 7.27448 28.2382 9.30847 27.7087 10.9845L26.6943 10.6723C24.3265 9.94171 21.7975 10.1804 19.6506 11.2546C17.8162 12.1719 15.7263 12.3447 13.7656 11.7407L12.4017 11.3211ZM9.84375 1.5625H30.1562V2.57812C30.1562 3.00903 29.8059 3.35938 29.375 3.35938H10.625C10.1941 3.35938 9.84375 3.00903 9.84375 2.57812V1.5625ZM13.2446 13.2153L13.306 13.2343C15.6454 13.9548 18.1473 13.7534 20.3497 12.652C22.1429 11.7545 24.2557 11.5552 26.2344 12.1655L27.1475 12.4466C25.6631 15.6662 23.4137 16.4944 22.0148 17.5793C21.2369 18.1012 20.5154 18.587 20 19.1394C19.4846 18.587 18.7631 18.1012 17.9852 17.5793C16.7041 16.5857 14.7113 15.8081 13.2446 13.2153ZM19.0997 20.5283C19.1779 20.6659 19.2188 20.8011 19.2188 20.9375V23.125C19.2188 23.5565 19.5685 23.9062 20 23.9062C20.4315 23.9062 20.7812 23.5565 20.7812 23.125V20.9375C20.7812 20.8011 20.8221 20.6659 20.9003 20.5283C21.2106 21.4743 22.0859 22.095 23.0026 22.7448C25.1645 24.2764 28.3987 26.5686 28.5852 35.0781H27.8976C27.7853 35.0159 27.6569 34.9805 27.5195 34.9805C25.3049 34.9805 24.5215 30.4199 20.0052 30.3906C19.9911 30.3906 19.9777 30.3903 19.9637 30.3903C15.4605 30.3903 14.7101 35.0781 12.1875 35.0781H11.4151C11.6013 26.5686 14.8358 24.2764 16.9974 22.7448C17.9141 22.095 18.7894 21.4743 19.0997 20.5283Z" fill="#EAC57E"/>
</svg>

<svg width="40" height="40" fill="none" xmlns="http://www.w3.org/2000/svg"><path d="M15.313 8.047a.782.782 0 10-.001-1.563.782.782 0 000 1.563zM18.438 8.047h6.25a.781.781 0 100-1.563h-6.25a.781.781 0 100 1.563zM20 28.828c.431 0 .781-.35.781-.781V26.25a.781.781 0 10-1.562 0v1.797c0 .431.35.781.781.781z" fill="#EAC57E"/><path d="M16.094 21.47c-1.17.83-2.774 1.965-4.05 4.15-1.406 2.406-2.125 5.549-2.194 9.59a2.347 2.347 0 00-1.569 2.212v1.797c0 .431.35.781.781.781h21.876c.431 0 .78-.35.78-.781v-1.797c0-1.02-.655-1.89-1.567-2.211-.07-4.042-.789-7.185-2.195-9.591-1.276-2.185-2.88-3.32-4.05-4.15-1.055-.748-1.562-1.133-1.562-1.704 0-1.551 4.428-1.827 6.587-7.536.758-2 1.167-4.502 1.22-7.44a2.347 2.347 0 001.568-2.212V.781A.781.781 0 0030.937 0H9.063a.781.781 0 00-.78.781v1.797c0 1.02.655 1.89 1.568 2.211.052 2.94.461 5.44 1.218 7.44 2.16 5.708 6.588 5.989 6.588 7.537 0 .572-.507.956-1.562 1.704zm14.062 16.968H9.844v-1.016c0-.431.35-.781.781-.781h18.75c.43 0 .781.35.781.78v1.017zm-14.827-3.36c1.355-1.412 2.32-3.125 4.635-3.125h.03c2.385.016 3.32 1.718 4.65 3.125H15.33zm-2.927-23.757c-.6-1.738-.93-3.887-.986-6.4h17.168c-.053 2.353-.346 4.387-.875 6.064l-1.015-.313a9.505 9.505 0 00-7.043.583 7.9 7.9 0 01-5.885.486l-1.364-.42zM9.844 1.563h20.312v1.015c0 .431-.35.781-.781.781h-18.75a.782.782 0 01-.781-.78V1.561zm3.4 11.652l.062.02c2.34.72 4.841.518 7.044-.583a7.94 7.94 0 015.884-.486l.913.28c-1.484 3.22-3.733 4.048-5.132 5.133-.778.522-1.5 1.008-2.015 1.56-.515-.552-1.237-1.038-2.015-1.56-1.28-.993-3.274-1.77-4.74-4.364zm5.856 7.313c.078.138.119.273.119.41v2.187a.781.781 0 101.562 0v-2.188c0-.136.041-.271.12-.409.31.946 1.185 1.567 2.102 2.217 2.162 1.531 5.396 3.824 5.582 12.333h-.687a.777.777 0 00-.378-.098c-2.215 0-2.998-4.56-7.515-4.59h-.041c-4.503 0-5.254 4.688-7.776 4.688h-.773c.186-8.51 3.42-10.802 5.582-12.333.917-.65 1.792-1.27 2.103-2.217z" fill="#EAC57E"/></svg>
